X:119
T:Thomas McQuinn's Polka
B:Terry "Cuz" Teahan "Sliabh Luachra on Parade" 1980
Z:Patrick Cavanagh
M:2/4
L:1/8
R:Polka
K:D
| AB cd | ed cd | eA AB | c/B/A GE | 
AB cd | ed cd | eA Bc | BA A2 :| 
| ag eg | ag e2 | fd de | fd d2 | 
ag eg | ag ec | BA Bc | BA A2 :|| 

